X: 20966
T: Judy Ann's
R: waltz
M: 3/4
K: Gmajor
D2|:G2 GF GA|B2 D2 GF|
E2 ED EG|D4 GF|E2 ED E/F/G|
[1 {A}B2 d2 Bd|e2 ed cB|A4 D2:|
[2 {A}B2 d2 BG|A3 B GF|G3 G Bd:|
|:e2 eg fd|e2 ed Bd|e2 ed Bc|A3 B GA|
{A}B3 d de|dB G2 GA|{A}B3 D FA|1 G3 G Bd:|2 G4 D2||

